X:257
T:Flowers of Edinburgh
S:Colin Hume's website,  colinhume.com  - chords can also be printed below the stave.
Q:1/2=110
M:4/4
K:G
P:A
|: GE | "G"D2DE "/"G2GA | "G"BABd "/"cBAG | "D"FGFE "/"DEFG | "D"AFdF "/"E2GE |\
"G"D2DE "/"G2GA | "G"BABd "C"efge | "G"dcBA "D"GFGA | "G"B2G2 "/"G2 :|
P:B
|: ef | "G"g2g2 "/"gbag | "D"f2f2 fagf | "C"e2ef "/"gfed | "Em"B2e2 "/"e2ge |\
"G"dBGB "/"d2d2 | "C"edef "/"g2fe | "G"dcBA "D"GFGA | "G"B2G2 "/"G2 :|

